X: 560
T: The Tailor's Thimble
M:4/4
L:1/8
R:Reel
S:Paul McGrattan, Catskills Irish Arts Week 2002
Z:Dennis J Gormley (http://www.hslc.org/~gormley)
N:second attempt!
N: See also http://www.hslc.org/~gormley/tunes/tailorth.htmlx
N:Posted to the woodenflute mailing list, July 2002
K:ADor
dB|cAAG A2dB|cA~A2 dBAB|cAAG A2 (3Bcd|efge dBAB|
cAAG A2dB|cA~A2 dBAB|cAAG A2 (3Bcd|efge dega||
b2gb a2ga|bgge dega|bg~g2 aged|efge dega
b2gb a2ga|bgge dega|bg~g2 aged|efge dBGB :|
cAAG A

